X: 6068
T: Cappataggle Shuffle, The
R: reel
M: 4/4
K: Dmajor
D2 AD BDAF|DAFD EDB,A,|D2 AD BDAD|EDB,D EAFE|
D2 AD BDAF|DAFD EDB,D|EDB,D E2 FA|1 Beec dBAF:|2 Beec dBAB||
d3f edef|dfed dBAB|d3f edef|dAFD EDB,A,|d3f edef|
dfed edBc|1 dBAF G3A|Beec dBAB:|2 dBAF E2 FA|Beec dBAF||

